X: 6
T: The Dark Island
R: waltz
M: 3/4
L: 1/8
K: Gmaj
DE|:A3 B2{cB} A|G3 A G2|E3{FE} D CE|{E}D4 {DEG}A2|B3 A GA|B d4 D| dB2 D d<B|A4 D<E|
A3 B2{cB} A|G3 A G2|E3{FE} D CE|{E}D4 {DEG}A2|B3 D d<B|
A3 D B2{cBA}|1G6|{AGE}G4 E2:|2 G6|{AGE}G3 ABc||
|:d3 D D2|B3 DD2|E<G-G2 E2|D4 E/G/A|B2 BA GA|B d4 d|B2 D d<B|A4 E2|
A3 B2{cB} A|G3 A G2|E3{FE} D CE|D4 {DEG}A2|B3 D d<B|
A3 D B2{cBA}|1G6|{AGE}G3 ABc:|2G6|{AGE}G6|]


Tune 4906	Setting 20649

